X: 4
T: DA BROON COO, OR MRS MacLEOD
S: Leslie Hughson, Uyeasound
R: reel
B: Haand me doon da fiddle, 1979
Z: 2012 John Chambers <jc:trillian.mit.edu>
M: C
L: 1/8
K: A
|:\
A2a2 fefa | c2cB c2cB | A2a2 fefa | B2BA B2cB |
A2a2 fefa | c2cB c2ce | f2f2 fefg | afec B2cB :|
|:\
vA2u(cA) veAcA | c2cB c2cB | vA2u(cA) eAcA | B2BA B2cB |
vA2u(cA) veAcA | c2cB c2ce | f2f2 fefg | (af)ec A2cB :|
%%%begintext align
%%%endtext

%%sep 2 1 500
%%sep 1 1 500

